X: 35
T:Apples in Winter
M:6/8
L:1/8
Q:120
R:Jig
K:D
"D"F3 "A"E3|"D"DFA BAF|ABd ede|fdB "A"AFE|
"D"F3 "A"E3|"D"DFA BAF|ABd ede|1 fdd d3:|2 fdd d2|:
e|"D"fdB ABd|faa agf|"G"gag "D"fed|"Em"Bee "A"ede|
"D"fdB ABd|faa agf|"G"bag "A"fge|"D"fdd d2:|
